**kern	**kern	**dynam
*part1	*part1	*part1
*staff2	*staff1	*
*I"Piano	*	*
*clefF4	*clefG2	*
*k[f#c#g#d#]	*k[f#c#g#d#]	*
=1	=1	=1
*^	*	*
16r	2AA	(4aa	.
16ALL	.	.	.
16F#	.	.	.
16AJJ	.	.	.
16C#LL	.	4ff#)	.
16A	.	.	.
16F#	.	.	.
16AJJ	.	.	.
*v	*v	*	*
=	=	=
(16BBLL	(8eeL	.
16G#	.	.
16E	16gg#Jk)	.
16G#JJ)	16r	.
(16BBLL	(8ff#L	.
16A	.	.
16D#	16bbJk)	.
16AJJ)	16r	.
=	=	=
8E 8G#	8ee	.
16r	16r	.
32r	32r	ff
32EE	32G# 32B 32e	.
8EEL	8G#L 8B 8e	.
8EJ	8G#J 8B 8e	.
=	=	=
[4EE	[4G# [4B [4e	.
8EE]	8G#] 8B] 8e]	.
=||	=||	=||
8r	8r	.
=	=	=
8E	16BLL	p
.	16g#	.
8r	16e	.
.	16g#JJ	.
8E	16c#LL	.
.	16a	.
8r	16e	.
.	16aJJ	.
=	=	=
8E	16BLL	.
.	16g#	.
8r	16e	.
.	16g#JJ	.
8E	16BLL	.
.	16g#	.
8r	16e	.
.	16g#JJ	.
=	=	=
*-	*-	*-
!!!system-decoration: {(s1,s2)}
